X:1
T:Holyrood, SM
T:Holyrood, SM
T:James Watson, 1867
T:Public Domain Courtesy of the Cyber Hymnal™
C:James Watson, 1867
Z:Public Domain
Z:Courtesy of the Cyber Hymnal™
%%score ( 1 2 ) ( 3 4 )
L:1/8
Q:1/4=115
M:4/4
K:Eb
V:1 treble 
V:2 treble 
V:3 bass 
V:4 bass 
V:1
 [B,E]2 | [EG]2 [EB]2 [EB]2 [Ec]2 | [EB]6 [FB]2 | [Gc]2 [Ee]2 d2 z x3 | [DB]6 [EB]2 | %5
 [EB]2 [Ec]2 [Ge]2 [EG]2 | [EA]2 [Ec]2 [DB]2 [EG]2 | [CF]2 [CA]2 [B,D]2 [B,D]2 | [B,E]6 |] %9
V:2
 x2 | x8 | x8 | x4 F3 (c2 E) | x8 | x8 | x8 | x8 | x6 |] %9
V:3
 [E,G,]2 | [E,B,]2 [E,G,]2 [E,G,]2 [E,A,]2 | [E,G,]6 [D,B,]2 | [E,G,]2 [C,C]2 B,2 [F,=A,]2 x2 | %4
 [B,,B,]6 [E,G,]2 | [E,G,]2 [E,A,]2 [E,B,]2 [_D,B,]2 | [C,A,]2 [A,,A,]2 [B,,F,]2 E,2 | %7
 [A,,F,]2 [F,,F,]2 (F,G,) [B,,A,]2 | [E,G,]6 |] %9
V:4
 x2 | x8 | x8 | x4 (D,E,) x4 | x8 | x8 | x6 E,2 | x4 B,,2 x2 | x6 |] %9

